X:1
T:Tenderly the Savior Listened
T:Tenderly the Savior Listened
T:J. W. Walton
T:J. W. Walton, 1888
T:Public Domain Courtesy of the Cyber Hymnal™
T:Public Domain Courtesy of the Cyber Hymnal™
C:J. W. Walton
Z:Public Domain
Z:Courtesy of the Cyber Hymnal™
%%score ( 1 2 ) ( 3 4 )
L:1/8
Q:1/4=92
M:3/4
K:Ab
V:1 treble 
V:2 treble 
V:3 bass 
V:4 bass 
V:1
 A>[GB] [Ac]3 [AB] | [Ad][Ac] [Ac]2 [EA]2 | [EG][EA] [EB]3 [EG] | [EA][EB] [Ec]3 z | %4
w: 1.~Ten- der- ly the|Sav- ior list- ened|To the voice of|grief or pain;|
w: 2.~Si- lent- ly en-|dured the Sav- ior|Cru- el taunts, the|scourge, the cross,|
w: 3.~Was it not e-|nough, O Sav- ior,|For us sin- ful|men to die?|
 [CA]>[DB] [Ec]2 [DB]2 | [Fd][Ec] [Ec]2 [CA]2 | [Ec][Ec] [EB]3 [EB] | [Ac][A=d] [Ge]3 z | %8
w: Oft His eyes with|tear- drops glist- ened,|No one sought His|help in vain.|
w: For His heav’n- ly|Fa- ther’s fa- vor|Count- ing all things|else but loss.|
w: Spite of all our|ill be- hav- ior,|Thou dost plead for|us on high!|
 [DB]>[DB] [DB]2 [DB]2 | [DG][DE] [CA]2 [Ec]2 | [DF]>[DG] [CA]3 [CA] | [FB][FB] [=Ec]3 z | %12
w: Now, a- mid the|choirs of Hea- ven,|Still He hears our|faint- est prayer;|
w: Thus may I, thro’|pain or sor- row,|Calm- ly walk with-|out a- larm.|
w: In the light of|such com- pas- sion,|Shall I not for-|giv- en be?|
 [Ec]>[Ec] [Ec]3 [Ec] | [Ec][_Ge] [Ge]2 [Fd]2 | [EG][EB] [EA]2 E2 | c>[EB] [EA]4 || %16
w: May this grace to|me be giv- en,|Thy de- vo- tion|let me share.|
w: From Thy pa- tience|let me bor- row,|Lean- ing si- lent|on Thine arm.|
w: Let Thy free and|full sal- va- tion|Mag- ni- fy it-|self in me.|
"^Refrain" [CA]>[CE] [CA]3 z |"^riten." [Ac]>A [Ac]3 z |"^tempo" [Ge]>[GB] [GB]3 [Gd] | %19
w: |||
w: * “Swift to|hear, slow to|speak”: Lord, in this|
w: |||
 [Gc][GB] [Ac]3 z | [EA]>[EA] [EA]3 [EA] | [FA]>[FA] [EA]2 [EG]2 | [DG][DB] [CB]2 [CE]2 | %23
w: ||||
w: Thy grace I|seek; “Slow to wrath,”|O may I be,|Dear- est Sav- ior,|
w: ||||
"^riten." [Gc]>[GB] A4 |] x6 |] %25
w: ||
w: more like Thee!||
w: ||
V:2
 A3/2 x9/2 | x6 | x6 | x6 | x6 | x6 | x6 | x6 | x6 | x6 | x6 | x6 | x6 | x6 | x4 E2 | G G/ x9/2 || %16
 x6 | x3/2 A/ x4 | x6 | x6 | x6 | x6 | x6 | x2 A4 |] x6 |] %25
V:3
 [A,C]>[A,D] [A,E]3 [A,D] | [A,F][A,E] [A,E]2 [A,C]2 | [E,B,][E,C] [E,D]3 [E,B,] | %3
 [A,C][A,D] [A,E]3 z | [A,,A,]>[A,,A,] [A,,A,]2 [A,,A,]2 | [A,,A,][A,,A,] [A,,A,]2 [A,,A,]2 | %6
 [A,,A,][A,,A,] [B,,G,]3 [B,,G,] | [B,,B,][B,,B,] [E,B,]3 z | [E,G,]>[E,G,] [E,G,]2 [E,G,]2 | %9
 [E,B,][E,G,] [A,,A,]2 [A,,A,]2 | A,>[G,B,] [F,A,]3 [F,A,] | [D,A,][D,F,] [C,G,]3 z | %12
 A,>A, A,3 A, | A,[C,A,] [D,A,]2 [D,A,]2 | [E,B,][E,D] [E,C]2 [E,C]2 | [E,D]>[E,D] [A,,C]4 || %16
 [A,,A,]>[A,,A,] [A,,A,]3 z | [A,E]>[A,C] [A,E]3 z | [E,B,]>[E,E] [E,E]3 [E,E] | [E,E] x5 | %20
 [E,E] [A,E]3 z x | [A,C]>[A,C] [A,C]3 [A,C] | [B,=D]>[B,D] C2 B,2 | [E,B,][E,B,] A,2 [A,C]2 |] %24
 [E,E]>[E,D] [A,,C]4 |] %25
V:4
 x6 | x6 | x6 | x6 | x6 | x6 | x6 | x6 | x6 | x6 | A,3/2 x9/2 | x6 | A,>A, A,3 A, | A, x5 | x6 | %15
 x6 || x6 | x6 | x6 | x6 | x6 | x6 | x2 E,4 | x2 A,2 x2 |] x6 |] %25

